public/icons/js.svg

<svg version="1.1" id="Layer_1" xmlns="http://www.w3.org/2000/svg" xmlns:xlink="http://www.w3.org/1999/xlink" x="0px" y="0px" viewBox="0 0 100.25 100.25" style="enable-background:new 0 0 100.25 100.25;" xml:space="preserve">
<g>
	<path d="M79.567,29.924l-18.26-18.479C61.025,11.16,60.641,11,60.24,11H20.5c-0.829,0-1.5,0.672-1.5,1.5v75
		c0,0.828,0.671,1.5,1.5,1.5h58c0.829,0,1.5-0.672,1.5-1.5V30.979C80,30.585,79.844,30.206,79.567,29.924z M62,16.415L74.929,29.5
		H62V16.415z M22,86V14h37v17c0,0.828,0.671,1.5,1.5,1.5H77V86H22z" id="id_101" style="fill: rgb(255, 255, 255);"></path>
	<path d="M44,62.5c-0.829,0-1.5,0.672-1.5,1.5v10.344c0,0.416-0.159,1.381-0.528,1.728c-0.821,0.772-1.58,0.323-1.944,0
		c-0.604-0.567-1.552-0.539-2.121,0.065c-0.567,0.604-0.538,1.553,0.065,2.12c0.692,0.651,1.838,1.237,3.105,1.237
		c0.961,0,1.992-0.337,2.95-1.237c1.431-1.346,1.472-3.654,1.472-3.913V64C45.5,63.171,44.829,62.5,44,62.5z" id="id_102" style="fill: rgb(255, 255, 255);"></path>
	<path d="M56.065,69.534c-0.667-0.212-2.844-1.004-2.844-2.284c0-1.75,1.334-1.75,1.903-1.75c1.5,0,2.372,1.414,2.419,1.491
		c0.415,0.712,1.325,0.958,2.042,0.545c0.719-0.411,0.967-1.328,0.555-2.047c-0.07-0.122-1.751-2.989-5.016-2.989
		c-3.619,0-4.903,2.559-4.903,4.75c0,2.305,1.752,4.131,4.935,5.144C58,73.299,58,73.908,58,74.678c0,0.453-0.268,0.956-0.7,1.313
		c-0.303,0.25-0.948,0.646-1.895,0.463c-1.686-0.321-2.448-1.335-2.642-1.638c-0.447-0.699-1.375-0.903-2.072-0.456
		c-0.698,0.446-0.902,1.373-0.457,2.071c0.458,0.716,1.822,2.438,4.607,2.97c0.342,0.065,0.685,0.098,1.025,0.098
		c1.22,0,2.4-0.415,3.344-1.196c1.12-0.926,1.788-2.28,1.788-3.625C61,71.712,59.027,70.477,56.065,69.534z" id="id_103" style="fill: rgb(255, 255, 255);"></path>
</g>
</svg>

<svg width="101" height="101" viewBox="0 0 101 101" fill="none" xmlns="http://www.w3.org/2000/svg">
<path d="M79.567 29.924L61.307 11.445C61.025 11.16 60.641 11 60.24 11H20.5C19.671 11 19 11.672 19 12.5V87.5C19 88.328 19.671 89 20.5 89H78.5C79.329 89 80 88.328 80 87.5V30.979C80 30.585 79.844 30.206 79.567 29.924ZM62 16.415L74.929 29.5H62V16.415ZM22 86V14H59V31C59 31.828 59.671 32.5 60.5 32.5H77V86H22Z" fill="#ffffff" stroke="#000000" stroke-width="2.2" id="id_101"></path>
<path d="M44 62.5C43.171 62.5 42.5 63.172 42.5 64V74.344C42.5 74.76 42.341 75.725 41.972 76.072C41.151 76.844 40.392 76.395 40.028 76.072C39.424 75.505 38.476 75.533 37.907 76.137C37.34 76.741 37.369 77.69 37.972 78.257C38.664 78.908 39.81 79.494 41.077 79.494C42.038 79.494 43.069 79.157 44.027 78.257C45.458 76.911 45.499 74.603 45.499 74.344V64C45.5 63.171 44.829 62.5 44 62.5Z" fill="#fafafa" stroke="#fafafa" stroke-width="2.2" id="id_102"></path>
<path d="M56.065 69.534C55.398 69.322 53.221 68.53 53.221 67.25C53.221 65.5 54.555 65.5 55.124 65.5C56.624 65.5 57.496 66.914 57.543 66.991C57.958 67.703 58.868 67.949 59.585 67.536C60.304 67.125 60.552 66.208 60.14 65.489C60.07 65.367 58.389 62.5 55.124 62.5C51.505 62.5 50.221 65.059 50.221 67.25C50.221 69.555 51.973 71.381 55.156 72.394C58 73.299 58 73.908 58 74.678C58 75.131 57.732 75.634 57.3 75.991C56.997 76.241 56.352 76.637 55.405 76.454C53.719 76.133 52.957 75.119 52.763 74.816C52.316 74.117 51.388 73.913 50.691 74.36C49.993 74.806 49.789 75.733 50.234 76.431C50.692 77.147 52.056 78.869 54.841 79.401C55.183 79.466 55.526 79.499 55.866 79.499C57.086 79.499 58.266 79.084 59.21 78.303C60.33 77.377 60.998 76.023 60.998 74.678C61 71.712 59.027 70.477 56.065 69.534Z" fill="#ffffff" stroke="#ffffff" stroke-width="2.2" id="id_103"></path>
</svg>
